Icons/Format.svg

<svg viewBox="0 0 16 16" xmlns="http://www.w3.org/2000/svg">
  <text style="font-weight:bold;font-size:7.9199;font-family:Consolas;letter-spacing:0;word-spacing:0;fill:#808080;stroke-width:.989987" transform="scale(1.0247918 .975808)" x="-.587805" y="6.66308"><tspan fill="#808080" font-family="Consolas" font-weight="bold" stroke-width=".989987" x="-.587805" y="6.66308">{</tspan></text>
  <path d="m1 11v1h1v-1zm3 0v1h1v-1zm3 0v1h1v-1zm3 0v1h1v-1z" fill="#4d82b8"/>
  <text style="font-weight:bold;font-size:7.9199;font-family:Consolas;letter-spacing:0;word-spacing:0;fill:#808080;stroke-width:.989987" transform="scale(1.0247918 .97580797)" x="12.097698" y="13.836623"><tspan fill="#808080" font-family="Consolas" font-weight="bold" stroke-width=".989987" x="12.097698" y="13.836623">{</tspan></text>
</svg>

<?xml version="1.0" encoding="UTF-8" standalone="no"?>
<svg
   xmlns:dc="http://purl.org/dc/elements/1.1/"
   xmlns:cc="http://creativecommons.org/ns#"
   xmlns:rdf="http://www.w3.org/1999/02/22-rdf-syntax-ns#"
   xmlns:svg="http://www.w3.org/2000/svg"
   xmlns="http://www.w3.org/2000/svg"
   xmlns:sodipodi="http://sodipodi.sourceforge.net/DTD/sodipodi-0.dtd"
   xmlns:inkscape="http://www.inkscape.org/namespaces/inkscape"
   viewBox="0 0 16 16"
   version="1.1"
   id="svg10"
   sodipodi:docname="Format.svg"
   inkscape:version="0.92.4 (5da689c313, 2019-01-14)"
   inkscape:export-filename="C:\Users\Kalama\Documents\GitHub\CodeLab-bb\Icons\Format.32.png"
   inkscape:export-xdpi="192"
   inkscape:export-ydpi="192"><metadata
   id="metadata16">
  <rdf:RDF>
    <cc:Work
       rdf:about="">
      <dc:format>image/svg+xml</dc:format>
      <dc:type
         rdf:resource="http://purl.org/dc/dcmitype/StillImage" />
    </cc:Work>
  </rdf:RDF>
</metadata>
<defs
   id="defs14" />
<sodipodi:namedview
   pagecolor="#ffffff"
   bordercolor="#666666"
   borderopacity="1"
   objecttolerance="10"
   gridtolerance="10"
   guidetolerance="10"
   inkscape:pageopacity="0"
   inkscape:pageshadow="2"
   inkscape:window-width="944"
   inkscape:window-height="1002"
   id="namedview12"
   showgrid="false"
   showguides="false"
   inkscape:zoom="22.627417"
   inkscape:cx="7.6261447"
   inkscape:cy="9.1449887"
   inkscape:window-x="0"
   inkscape:window-y="0"
   inkscape:window-maximized="0"
   inkscape:current-layer="svg10" />










     /&amp;gt;
 <text
   xml:space="preserve"
   style="font-style:normal;font-variant:normal;font-weight:bold;font-stretch:normal;font-size:7.91989994px;line-height:1.25;font-family:Consolas;-inkscape-font-specification:'Consolas Bold';letter-spacing:0px;word-spacing:0px;fill:#808080;fill-opacity:1;stroke:none;stroke-width:0.98998749"
   x="-0.58780509"
   y="6.6630802"
   id="text829"
   transform="scale(1.0247918,0.975808)"><tspan
     sodipodi:role="line"
     id="tspan827"
     x="-0.58780509"
     y="6.6630802"
     style="font-style:normal;font-variant:normal;font-weight:bold;font-stretch:normal;font-family:Consolas;-inkscape-font-specification:'Consolas Bold';fill:#808080;fill-opacity:1;stroke-width:0.98998749">{</tspan></text>
<path
   style="fill:#4d82b8;fill-opacity:1;stroke:none;stroke-width:1px;stroke-linecap:butt;stroke-linejoin:miter;stroke-opacity:1"
   d="M 1 11 L 1 12 L 2 12 L 2 11 L 1 11 z M 4 11 L 4 12 L 5 12 L 5 11 L 4 11 z M 7 11 L 7 12 L 8 12 L 8 11 L 7 11 z M 10 11 L 10 12 L 11 12 L 11 11 L 10 11 z "
   id="path849" />
<text
   xml:space="preserve"
   style="font-style:normal;font-variant:normal;font-weight:bold;font-stretch:normal;font-size:7.91989994px;line-height:1.25;font-family:Consolas;-inkscape-font-specification:'Consolas Bold';letter-spacing:0px;word-spacing:0px;fill:#808080;fill-opacity:1;stroke:none;stroke-width:0.98998749"
   x="12.097698"
   y="13.836623"
   id="text829-9"
   transform="scale(1.0247918,0.97580797)"><tspan
     sodipodi:role="line"
     id="tspan827-8"
     x="12.097698"
     y="13.836623"
     style="font-style:normal;font-variant:normal;font-weight:bold;font-stretch:normal;font-family:Consolas;-inkscape-font-specification:'Consolas Bold';fill:#808080;fill-opacity:1;stroke-width:0.98998749">{</tspan></text>
</svg>
